src/img/tel.svg

<svg width="20" height="20" viewBox="0 0 20 20" fill="none" xmlns="http://www.w3.org/2000/svg">
  <path
    fill-rule="evenodd"
    clip-rule="evenodd"
    d="M10 0C4.47705 0 0 4.47705 0 10C0 12.6523 1.05347 15.1958 2.92896 17.0713C4.8042 18.9463 7.3479 20 10 20C12.6521 20 15.1958 18.9463 17.071 17.0713C18.9465 15.1958 20 12.6523 20 10C20 7.34766 18.9465 4.8042 17.071 2.92871C15.1958 1.05371 12.6521 0 10 0ZM10 18C5.58179 18 2 14.4185 2 10C2 5.58154 5.58179 2 10 2C12.1218 2 14.1565 2.84277 15.6567 4.34326C17.1572 5.84326 18 7.87842 18 10C18 14.4185 14.4182 18 10 18ZM10.6721 12.9888C9.1001 12.189 7.81104 10.8999 7.01123 9.32764L8.2334 8.10547C8.38892 7.9502 8.43335 7.7334 8.37231 7.53906C8.16675 6.9165 8.05566 6.25 8.05566 5.55566C8.05566 5.24854 7.80688 5 7.5 5H5.55566C5.4082 5 5.26685 5.05859 5.1626 5.1626C5.05859 5.26709 5 5.4082 5 5.55566C5 10.7715 9.22852 15 14.4443 15C14.7512 15 15 14.7515 15 14.4443V12.5C15 12.1934 14.7512 11.9443 14.4443 11.9443C13.75 11.9443 13.0833 11.8335 12.4612 11.6279C12.2666 11.5669 12.05 11.6113 11.8945 11.7666L10.6721 12.9888Z"
    fill="#F3084E"/>
</svg>

<svg width="20" height="20" fill="none" xmlns="http://www.w3.org/2000/svg"><path fill-rule="evenodd" clip-rule="evenodd" d="M10 0C4.477 0 0 4.477 0 10A10 10 0 1 0 10 0zm0 18a8 8 0 1 1 0-16 8 8 0 0 1 0 16zm.672-5.011a8.386 8.386 0 0 1-3.66-3.661l1.221-1.223a.557.557 0 0 0 .14-.566 6.314 6.314 0 0 1-.317-1.983A.556.556 0 0 0 7.5 5H5.556A.557.557 0 0 0 5 5.556 9.445 9.445 0 0 0 14.444 15a.556.556 0 0 0 .556-.556V12.5a.556.556 0 0 0-.556-.556c-.694 0-1.36-.11-1.983-.316a.558.558 0 0 0-.566.139l-1.223 1.222z" fill="#F3084E"/></svg>
